X: 44
T: WE MUST ALL WAIT TILL MY LADY COMES HOME
B: "Old English Country Dances", Frank Kidson ed., William Reeves pub., London 1890
Z: 2010-9-26 John Chambers <jc:trillian.mit.edu>
M: 6/8
L: 1/8
K: G
D |\
G>AG G2A | BcB B2G | Bdg dBG | FAA A2D |
G>AG G2A | BcB B2g | dcB ABc | BGG G2 :|
|: f |\
g2d e2d | g2d e2d | c2B A2G | FAA A2f |
g2d e2d | g2d e2d | dcB ABc | BGG G2 :|


%%sep 1 1 500

%%sep 1 1 500

